X:1
T:Title
%%score { ( 1 4 5 ) | ( 2 3 ) }
L:1/8
M:3/4
K:Ab
V:1 treble nm="Grand Piano"
V:4 treble 
V:5 treble 
V:2 treble 
V:3 treble 
V:1
 z2 z[Q:1/4=100] c cd | [DB]3 E [DB]c | [CA]2 [CE]A [CA]B | [B,G]3 A [DB]_c | [Ec]3 c [Ec]d | %5
 [DB]3 B [DB]c | [CA]2 [CE]A [CA]G | F[Fd] [Ec]2 [DB]2 |[M:3/8] [A,CA]3 | ced |[M:3/4] B4 z2 | %11
 [Ec]2 [CA][CA] [DB][CA] | z B, B,[Fd] [Gd][Fd] |[M:3/8] d2 c | ced |[M:3/4] B4 z2 | %16
 [Ec]2 [CA][Ec] [DB][CA] | [=DA]4[K:bass][K:treble] z2 |[M:9/16] [CA]4- [CA]/ |] %19
V:2
 z2 z E EF | E,,E, z D z E | A,,E, z C z D | E,,E, z C z =D | A,,E, z E z F | E,,E, z D z E | %6
 A,,E, z C z E | [D,A,D][B,,B,] [E,A,]2 [E,G,]2 |[M:3/8] A,,3 | AGF | %10
[M:3/4][K:bass] D-[E,D-] DD EE | [A,,A,][A,,A,] [A,,E,]2 [A,,A,]2 | %12
 [E,B,]E, E,[E,B,] [E,B,][E,B,] |[M:3/8][K:treble] [G,B,=E]2 [A,_E] | AGF | %15
[M:3/4][K:bass] D-[E,D-] DD EE | [A,,A,][A,,A,] [A,,E,]2 [A,,A,]2 | %17
 [B,,F,]B,, B,,B,, [E,A,][E,G,] |[M:9/16] [A,,A,]4- [A,,A,]/ |] %19
V:3
 x6 | z2 E,2 E,2 | z2 E,2 E,2 | z2 E,2 E,2 | z2 E,2 E,2 | z2 E,2 E,2 | z2 E,2 E,2 | x6 | %8
[M:3/8] x3 | x3 |[M:3/4][K:bass] .[E,G,]2 E,2 [E,G,]2 | x6 | x6 |[M:3/8][K:treble] x3 | x3 | %15
[M:3/4][K:bass] .[E,G,]2 E,2 [E,G,]2 | x6 | x6 |[M:9/16] x9/2 |] %19
V:4
 x6 | x6 | x6 | x6 | x6 | x6 | x6 | x6 |[M:3/8] x3 | x3 |[M:3/4] z G, z B dc | x6 | [DG]4 z2 | %13
[M:3/8] x3 | x3 |[M:3/4] z G, z B dc | x6 | z[K:bass] F, F,[K:treble][A,=DF] [Ec][_DB] | %18
[M:9/16] x9/2 |] %19
V:5
 x6 | x6 | x6 | x6 | x6 | x6 | x6 | x6 |[M:3/8] x3 | x3 |[M:3/4] z2 G,2 z2 | x6 | x6 |[M:3/8] x3 | %14
 x3 |[M:3/4] z2 G,2 z2 | x6 | x[K:bass] x2[K:treble] x3 |[M:9/16] x9/2 |] %19

